X:1
T:Wie soll ich Dich empfangen
T:Melchior Teschner Satz: Johann Sebastian Bach
T:Wie soll ich dich empfangen
T:Choral
T:CPDL   —   Creative Commons Attribution Non Commercial 3.0
C:Melchior Teschner
Z:CPDL   —   Creative Commons Attribution Non Commercial 3.0
%%score [ ( 1 2 ) 3 4 ]
L:1/8
Q:1/4=80
M:4/4
K:Eb
V:1 treble nm="Sopran\nAlt"
V:2 treble 
V:3 treble-8 nm="Tenor"
V:4 bass nm="Bass"
V:1
"^Feierlich"!p!!<(! E2 | B2!<)! B2 c2 d2 |!>(! e4!>)! !fermata!e2!f! g2 | f2 e2!>(! e2 d2!>)! | %4
w: 1.  Wie|soll ich dich emp-|fan- gen und|wie be- geg- nen|
w: o|al- ler Welt Ver-|lan- gen, du|mei- ner See- le|
 !fermata!e6 :|!f! ef | g2 g2 f2 e2 | (dc!>(! d2)!>)! !fermata!B2!f! d2 | e2 d2 c2!>(! c2!>)! | %9
w: dir?|O _|Je- su, Je- su,|zün- * * de mir|selbst die Fa- ckel|
w: Zier!|||||
 !fermata!B6 |!p!!<(! B2 | GA!<)! B2 c2 B2 |!>(! (B2 A2)!>)! !fermata!G2!p! B2 | %13
w: an,|auf|dass _ mein Herz er-|grün- * de, was|
w: ||||
[Q:1/4=76]"^Langsamer" A2 G2 F2 F2 | !fermata!E6 |] %15
w: dich er- freu- en|kann.|
w: ||
V:2
 B,2 | E2 G2 A2 G2 | G4 G2 c2 | c2 A2 G2 F2 | G6 :| GA | B2 c2 c2 =A2 | (B=A B2) F2 B2 | %8
 B2 B2 B2 =A2 | F6 | F2 | EF G2 A2 G2 | (G2 F2) _E2 E2 | E2 E2 E2 D2 | B,6 |] %15
V:3
!p!!<(! G2 | B2!<)! e2 e2 d2 |!>(! c4!>)! !fermata!c2!f! e2 | c2 c2!>(! B2 B2!>)! | !fermata!B6 :| %5
w: 2.~~Dein|Zi- on streut dir|Pal- men und|grü- ne Zwei- ge|hin,|
w: ich|will in Freu- den-|psal- men er-|mun- tern mei- nen|Sinn.|
!f! B2 | e2 e2 f2 f2 | (f!>(!e f2)!>)! !fermata!d2!f! f2 | e2 f2 g2!>(! fe!>)! | !fermata!d6 | %10
w: Es|soll mein Herz dir|grü- * * nen in|ste- tem Lob und _|Preis|
w: |||||
!p!!<(! B2 | B2!<)! e2 e2 _d2 |!>(! c4!>)! !fermata!c2!p! G2 | A2 B2 c2 B_A | !fermata!G6 |] %15
w: und|dei- nem Na- men|die- nen, so|gut es kann und _|weiß.|
w: |||||
V:4
!p!!<(! E,2 | G,2!<)! E,2 A,2 =B,,2 |!>(! C,4!>)! !fermata!C,2!f! C2 | A,2 F,2!>(! B,2 B,,2!>)! | %4
 !fermata!E,6 :|!f! E,2 | ED CB, =A,2 F,2 |!>(! B,4!>)! !fermata!B,,2!f! _A,2 | %8
 G,2 F,2 E,2!>(! F,2!>)! | !fermata!B,,6 |!p!!<(! D,2 | E,2!<)! _D,2 C,=D, =E,2 | %12
!>(! F,4!>)! !fermata!C,2!p! _D,2 | C,2 B,,2 =A,,2 B,,2 | !fermata![E,,E,]6 |] %15

